app/assets/images/logo-snyk.svg

<svg fill="none" viewBox="0 0 101 52" xmlns="http://www.w3.org/2000/svg" xmlns:xlink="http://www.w3.org/1999/xlink"><clipPath id="a"><path d="m0 0h100.414v52h-100.414z"/></clipPath><clipPath id="b"><path d="m.224121 0h32.7241v51.9736h-32.7241z"/></clipPath><g clip-path="url(#a)" fill="#030328"><g clip-path="url(#b)"><path d="m32.03 11.6196c-.4267-.1195-.8732-.239-1.3395-.3529.1472.5576.2288 1.1307.2431 1.7075v.4098l-1.9499 5.2876c.9891 9.1551.5058 10.4044.3476 10.8142-.2515.6517-.9241 1.7075-2.0516 3.2443l1.1077 10.3076 4.0298-2.9085c.1644-.1185.2984-.2749.3908-.456.0923-.1812.1405-.3819.1405-.5855v-26.2387c-.0011-.2772-.0911-.5467-.2566-.7682s-.3977-.3833-.6619-.4612z"/><path d="m32.9485 39.0905c0 .2036-.0482.4044-.1405.5855-.0924.1812-.2264.3375-.3908.4561l-4.0298 2.9084-1.1077-10.3076c1.1303-1.5311 1.8001-2.5926 2.0516-3.2443.1582-.4098.6415-1.6591-.3476-10.8142l1.9499-5.2876v-.4098c-.0143-.5768-.0959-1.1499-.2431-1.7075.4663.1139.9128.2334 1.3395.3529.2647.078.4972.2402.6627.4623.1656.2221.2553.4922.2558.77z"/><path d="m13.2797 12.1603c2.1591-.6356 4.4536-.6356 6.6127 0l.2515-.4155.2826-1.92662c-.9637-.04554-2.6253-.11383-3.8094-.11383-1.2914 0-2.5829.03699-3.8545.10529l.2826 1.93516z"/><path d="m16.6087 9.70715c1.184 0 2.8457.06831 3.8093.11384l-.2826 1.92661-.2515.4155c-2.159-.6356-4.4536-.6356-6.6126 0l-.2515-.4126-.2826-1.9352c1.2886-.07115 2.58-.10815 3.8715-.10815z"/><path d="m4.18885 18.6744-1.94423-5.2847v-.4127c.01416-.5766.09477-1.1496.2402-1.7075-.46345.1139-.91277.2334-1.33666.3529-.264897.0776-.497632.2397-.663243.4619s-.255155.4925-.255181.7704v26.2358c-.000061.2036.048106.4044.140503.5855.092397.1812.226359.3375.390771.4561l4.04672 2.9283 1.11058-10.2962c-1.13037-1.5482-1.81707-2.6182-2.0714-3.2756-.1639-.4126-.64713-1.662.34194-10.8142z"/><path d="m4.80776 43.0604-4.052369-2.9255c-.164412-.1186-.298375-.2749-.390772-.4561-.092396-.1811-.140559-.3818-.140498-.5855v-26.2386c.000026-.2779.08957-.5482.255181-.7704.16561-.2222.398346-.3843.663238-.4619.42389-.1195.87321-.239 1.33666-.3529-.14543.5579-.22604 1.1309-.2402 1.7075v.4127l1.94988 5.2847c-.98907 9.1522-.50584 10.4016-.34759 10.8142.25434.6574.93256 1.7274 2.0714 3.2756z"/><path d="m27.7706 28.8797c.3165-.8168.1357-4.6786-.486-10.3333v-.0853l1.9781-5.3758v-.1082c0-2.3449-3.0152-8.62003-4.804-11.95251l-.4635-.853753c-.0282-.052692-.0721-.095099-.1256-.1211877s-.1138-.0345357-.1723-.0241352c-.0585.0104006-.1123.0391229-.1537.0820719-.0414.042948-.0683.097938-.0768.15716l-1.7238 12.060654-1.105 1.8299-.2826-.0939c-1.2208-.4239-2.4987-.658-3.7895-.6944-1.2869.0307-2.5609.265-3.7755.6944l-.2825.0939-1.088-1.8299-1.71818-12.083417c-.00778-.060121-.03441-.116173-.07603-.1599828-.04162-.0438096-.09604-.07309196-.15534-.08357401-.0593-.01048209-.12037-.00161787-.17432.02529891-.05395.0269167-.09795.0704796-.12559.1243409l-.46062.853754c-1.78315 3.33817-4.80406 9.61328-4.80406 11.95258v.1081l1.97814 5.3758v.0854c-.6217 5.6547-.80256 9.5165-.48605 10.3332.28259.7314 1.41295 2.2995 2.35116 3.5488l-1.35927 12.6498 1.35362.9761 1.0145.7314 6.67484 4.835c.3358.2422.7385.3724 1.1515.3724.4131 0 .8158-.1302 1.1516-.3724l8.246-5.9421.8224-.5947-1.3593-12.6612c.9354-1.2436 2.046-2.7918 2.3257-3.5203zm-3.3261-21.05924.2148-1.5083c.0077-.0479.0303-.09212.0644-.12635.0342-.03424.0782-.05675.1258-.06432s.0964.00019.1394.02216c.0429.02197.0779.05704.0999.10021 1.0937 2.2966 2.1477 4.81234 2.2608 5.96204.0024.0338-.0024.0678-.0142.0996l-.5284 1.4229c-.0145.0401-.0399.0753-.0733.1015-.0334.0263-.0734.0425-.1155.047-.0421.0044-.0847-.0031-.1227-.0218-.0381-.0187-.0702-.0478-.0926-.084-1.3141-2.0831-1.8284-5.04851-1.9527-5.89373-.0043-.01962-.0061-.03968-.0057-.05976zm-5.2449 14.82404c.6048-.6034 1.6956-1.4429 3.0661-1.4429 1.8256 0 .7743 1.4059.4183 1.827-.0266.0313-.0595.0563-.0966.0735-.037.0172-.0774.0262-.1182.0262h-3.0718c-.0553-.0008-.1091-.018-.1549-.0493-.0457-.0313-.0813-.0755-.1024-.127s-.0266-.1081-.0161-.1628c.0106-.0546.0369-.105.0756-.1447zm1.5712 2.6124c.0464.1175.1234.2202.2228.2974.0995.0771.2178.1258.3424.1409.1767.025.3562-.0179.5029-.1202.1466-.1023.2496-.2565.2884-.4319-.1027-.0016-.2015-.04-.2787-.1084-.0771-.0683-.1276-.162-.1424-.2644-.0093-.0667-.0029-.1347.0187-.1985s.0578-.1215.1057-.1686l-.0198-.0171h1.2349v.0626c.007.2174-.0298.4339-.108.6366-.0783.2027-.1964.3874-.3473.543-.1509.1555-.3315.2788-.5309.3623s-.4135.1256-.6294.1236c-.2159-.0019-.4293-.0477-.6272-.1348-.1979-.087-.3763-.2135-.5244-.3717-.1482-.1582-.263-.345-.3377-.549-.0747-.2041-.1076-.4212-.0969-.6384v-.0342h1.218c-.1435.0866-.252.2215-.3063.3809-.0542.1593-.0509.3329.0096.4899zm-9.8539-4.0553c1.3762 0 2.4613.8395 3.0661 1.4429.039.0401.0654.091.0758.1462s.0044.1122-.0174.164c-.0218.0517-.0582.0958-.1048.1267s-.1013.0472-.1571.0469h-3.0576c-.0408 0-.0812-.009-.1183-.0262-.037-.0172-.07-.0422-.0965-.0735-.3702-.4211-1.42143-1.827.4041-1.827zm.5651 3.5687c-.0171.1003-.0686.1914-.1456.2574-.0769.066-.1744.1028-.2754.104.0344.1789.1357.3376.2829.4435s.3292.1509.5083.1257c.1153-.0155.2247-.0601.3181-.1298.0935-.0697.1678-.1621.216-.2686.0728-.158.0859-.3373.037-.5043-.0488-.1671-.1564-.3105-.3026-.4036h1.1841c.0087.0007.017.0045.0232.0108.0062.0062.01.0146.0107.0234.0107.2172-.0222.4344-.0969.6384-.0746.2041-.1895.3908-.3377.5491-.1481.1582-.3265.2846-.5244.3717-.1979.087-.4112.1329-.6272.1348-.2159.0019-.43-.0401-.6294-.1237-.1994-.0835-.38-.2067-.5309-.3623s-.269-.3402-.3473-.5429c-.0782-.2028-.115-.4193-.108-.6366v-.0627h1.2349l-.0197.0171c.0476.0457.0841.1018.1067.164.0225.0622.0305.1288.0232.1946zm-4.66837-10.9935c-.02287.036-.05524.0649-.09348.0835-.03824.0185-.08084.026-.12306.0216-.04222-.0045-.08238-.0206-.116-.0467s-.05938-.0611-.07439-.1011l-.52562-1.4229c-.0131-.0314-.01796-.0657-.01413-.0996.10738-1.1383 1.16145-3.66545 2.26073-5.96205.02131-.04367.05596-.07932.09886-.10171.04291-.0224.0918-.03036.13953-.02272.04772.00763.09176.03047.12565.06516.03389.03468.05586.0794.06268.12758l.21476 1.50829c.00281.02173.00281.04373 0 .06546-.12999.83668-.64431 3.80209-1.95553 5.88519zm3.99307 25.4988c-.89869-2.4788-.90999-5.9478-.90999-6.0958v-.2362l-.14695-.185c-.38715-.481-.84778-1.0758-1.31971-1.7075-.02805-.0367-.04681-.0797-.05465-.1253-.00783-.0456-.00451-.0924.00969-.1364s.03884-.0839.07178-.1161c.03295-.0323.07322-.056.1173-.069l2.42183-.7115c.0514-.0152.0975-.0448.1328-.0854l2.3116-2.6551c.0371-.0426.086-.073.1404-.0874s.1118-.0122.1649.0065c.0531.0186.0995.0528.1332.0981.0337.0454.0532.0998.056.1564l.4041 7.6097c.0023.0619-.0156.1229-.0508.1736-.1611.2391-.6217.9619-.6217 1.4059 0 .5692.8336 1.3148 1.656 1.9096.0091-.0243.0195-.048.0311-.0712.2825-.5179.664-.6119.8477-.2134.0628.2943.0847.596.065.8964h.0142v.7001c.0001.0433-.0095.0862-.0283.1252-.1498.3045-.876 1.6079-2.4218 1.6079-.6754.0199-2.2975-.1964-3.0237-2.1941zm6.8895 2.8885c.0235-.0005.0466.0065.066.0199s.0342.0325.0422.0547c.0081.0223.0091.0465.0029.0693-.0062.0229-.0194.0432-.0376.0581-.3398.2622-.756.4043-1.184.4043-.4281 0-.8443-.1421-1.1841-.4043-.018-.0148-.0311-.0348-.0374-.0574-.0063-.0225-.0055-.0465.0022-.0686s.022-.0413.041-.0549c.0189-.0136.0416-.021.0648-.0211zm2.0658.8338c-.3089.578-.7674 1.0609-1.3269 1.3976-.5595.3366-1.1991.5143-1.8509.5143-.6517 0-1.2913-.1777-1.8508-.5143-.5595-.3367-1.018-.8196-1.3269-1.3976-.0244-.0447-.0365-.0951-.0349-.1461s.0168-.1006.0439-.1436c.0272-.0431.0653-.078.1105-.1011.0451-.0231.0956-.0336.1461-.0304h.1696c.1788.0013.3571-.0187.5313-.0597.0548-.0135.1123-.0101.1652.0097s.0987.055.1315.1012c.2168.3095.5043.562.8382.7363s.7045.2652 1.0806.2652.7467-.0909 1.0806-.2652.6213-.4268.8382-.7363c.0328-.0462.0786-.0814.1315-.1012.0528-.0198.1104-.0232.1652-.0097.185.0449.3748.0669.5652.0654h.1328c.0495-.0021.0987.0089.1427.032.0439.0231.081.0574.1077.0995.0266.0421.0418.0904.0439.1403.0022.0499-.0086.0994-.0315.1437zm5.016-11.9354c-.4691.6204-.9326 1.2151-1.3197 1.7075l-.147.1849v.2362c0 .148 0 3.6171-.9099 6.0958-.7234 1.9921-2.3483 2.2141-3.0124 2.2141-1.5458 0-2.2608-1.3034-2.419-1.6079-.0198-.0388-.0304-.0816-.0311-.1252v-.7001h.0141c-.0196-.3004.0023-.6021.065-.8964.1724-.3985.5482-.3045.8478.2134 0 .0228.0198.0484.0311.0712.8223-.5948 1.656-1.3404 1.656-1.9096 0-.444-.4635-1.1668-.6246-1.4059-.0342-.0511-.0511-.112-.048-.1736l.4013-7.6097c.0028-.0566.0223-.111.056-.1564.0337-.0453.0801-.0795.1332-.0981.0531-.0187.1105-.0209.1649-.0065s.1033.0448.1404.0874l2.3116 2.6551c.0361.0411.0832.0707.1357.0854l2.4189.7115c.0403.015.0766.039.1062.0702.0297.0312.0519.0688.0649.1099.0131.0412.0167.0848.0106.1275-.0062.0428-.0219.0835-.046.1193z"/></g><path d="m90.4444 27.882h-.3892v6.7267h-4.8301v-16.748l4.8301-7.5504v15.6269c.9615-1.1783 4.2007-5.6513 4.2007-5.6513h5.9631l-5.6541 5.9831 5.8491 8.3511h-6.1009zm-13.4603-1.0982 1.9801-6.4521h4.7844l-5.6085 14.2312c-1.6711 4.2786-4.0633 7.1729-7.6344 7.1729-1.3735 0-2.5295-.3547-3.1362-.6979l1.9229-2.9743c.2862.0343.5838.0457.8814.0457 1.6482 0 2.8843-1.6016 3.6855-3.5006l-5.8831-14.277h5.4139l2.1174 6.372c.4121 1.2127.7097 3.5235.7097 3.5235s.3777-2.2308.7669-3.4434zm-14.5935-.3318c0-1.8647-.8241-2.7455-2.3922-2.7455-.7669 0-1.5681.2173-2.1175.5491v10.3531h-4.8302v-14.1397l4.7272-.389-.1145 2.3109h.1603c1.0187-1.3728 2.747-2.4139 4.8072-2.4139 2.4723 0 4.6127 1.533 4.6127 5.1594v9.4723h-4.853zm-23.1665 7.4246.435-3.2947c1.5108.7435 3.2163 1.0982 4.647 1.0982 1.0416 0 1.7283-.3547 1.7283-.9838 0-1.8076-6.5127-1.3728-6.5127-6.0975 0-3.0202 2.7699-4.6103 6.238-4.6103 1.7283 0 3.5139.469 4.6699.8809l-.4692 3.2375c-1.2133-.4691-2.8615-.9038-4.235-.9038-.847 0-1.5338.2974-1.5338.8466 0 1.7846 6.6501 1.4299 6.6501 6.0402 0 3.0659-2.7241 4.8277-6.4555 4.8277-2.0602 0-3.7313-.3547-5.1621-1.041z"/></g></svg>

<svg viewBox="0 0 101 52" fill="none" xmlns="http://www.w3.org/2000/svg">
<g clip-path="url(#clip0_9532_31065)">
<g clip-path="url(#clip1_9532_31065)">
<path d="M32.03 11.6196C31.6033 11.5001 31.1568 11.3806 30.6905 11.2667C30.8377 11.8243 30.9193 12.3974 30.9336 12.9742V13.384L28.9837 18.6716C29.9728 27.8267 29.4895 29.076 29.3313 29.4858C29.0798 30.1375 28.4072 31.1933 27.2797 32.7301L28.3874 43.0377L32.4172 40.1292C32.5816 40.0107 32.7156 39.8543 32.808 39.6732C32.9003 39.492 32.9485 39.2913 32.9485 39.0877V12.849C32.9474 12.5718 32.8574 12.3023 32.6919 12.0808C32.5264 11.8593 32.2942 11.6975 32.03 11.6196Z" fill="#030328"/>
<path d="M32.9485 39.0905C32.9485 39.2941 32.9003 39.4949 32.808 39.676C32.7156 39.8572 32.5816 40.0135 32.4172 40.1321L28.3874 43.0405L27.2797 32.7329C28.41 31.2018 29.0798 30.1403 29.3313 29.4886C29.4895 29.0788 29.9728 27.8295 28.9837 18.6744L30.9336 13.3868V12.977C30.9193 12.4002 30.8377 11.8271 30.6905 11.2695C31.1568 11.3834 31.6033 11.5029 32.03 11.6224C32.2947 11.7004 32.5272 11.8626 32.6927 12.0847C32.8583 12.3068 32.948 12.5769 32.9485 12.8547V39.0905Z" fill="#030328"/>
<path d="M13.2797 12.1603C15.4388 11.5247 17.7333 11.5247 19.8924 12.1603L20.1439 11.7448L20.4265 9.81818C19.4628 9.77264 17.8012 9.70435 16.6171 9.70435C15.3257 9.70435 14.0342 9.74134 12.7626 9.80964L13.0452 11.7448L13.2797 12.1603Z" fill="#030328"/>
<path d="M16.6087 9.70715C17.7927 9.70715 19.4544 9.77546 20.418 9.82099L20.1354 11.7476L19.8839 12.1631C17.7249 11.5275 15.4303 11.5275 13.2713 12.1631L13.0198 11.7505L12.7372 9.8153C14.0258 9.74415 15.3172 9.70715 16.6087 9.70715Z" fill="#030328"/>
<path d="M4.18885 18.6744L2.24462 13.3897V12.977C2.25878 12.4004 2.33939 11.8274 2.48482 11.2695C2.02137 11.3834 1.57205 11.5029 1.14816 11.6224C0.883263 11.7 0.650528 11.8621 0.484917 12.0843C0.319306 12.3065 0.229762 12.5768 0.229736 12.8547V39.0905C0.229675 39.2941 0.277842 39.4949 0.370239 39.676C0.462636 39.8572 0.596598 40.0135 0.76101 40.1321L4.80773 43.0604L5.91831 32.7642C4.78794 31.216 4.10124 30.146 3.84691 29.4886C3.68301 29.076 3.19978 27.8266 4.18885 18.6744Z" fill="#030328"/>
<path d="M4.80776 43.0604L0.755391 40.1349C0.590979 40.0163 0.457016 39.86 0.364619 39.6788C0.272223 39.4977 0.22406 39.297 0.224121 39.0933V12.8547C0.224147 12.5768 0.313691 12.3065 0.479302 12.0843C0.644912 11.8621 0.877648 11.7 1.14254 11.6224C1.56643 11.5029 2.01575 11.3834 2.4792 11.2695C2.33377 11.8274 2.25316 12.4004 2.239 12.977V13.3897L4.18888 18.6744C3.19981 27.8266 3.68304 29.076 3.84129 29.4886C4.09563 30.146 4.77385 31.216 5.91269 32.7642L4.80776 43.0604Z" fill="#030328"/>
<path d="M27.7706 28.8797C28.0871 28.0629 27.9063 24.2011 27.2846 18.5464V18.4611L29.2627 13.0853V12.9771C29.2627 10.6322 26.2475 4.35707 24.4587 1.02459L23.9952 0.170837C23.967 0.118145 23.9231 0.075738 23.8696 0.0496493C23.8161 0.0235606 23.7558 0.0151136 23.6973 0.0255141C23.6388 0.0359147 23.585 0.064637 23.5436 0.107586C23.5022 0.150534 23.4753 0.205524 23.4668 0.264746L21.743 12.3254L20.638 14.1553L20.3554 14.0614C19.1346 13.6375 17.8567 13.4034 16.5659 13.367C15.279 13.3977 14.005 13.632 12.7904 14.0614L12.5079 14.1553L11.4199 12.3254L9.70172 0.241983C9.69394 0.181862 9.66731 0.12581 9.62569 0.0820002C9.58407 0.0381906 9.52965 0.00890824 9.47035 -0.00157381C9.41105 -0.0120559 9.34998 -0.00319168 9.29603 0.0237251C9.24208 0.0506418 9.19808 0.0942047 9.17044 0.148066L8.70982 1.00182C6.92667 4.33999 3.90576 10.6151 3.90576 12.9544V13.0625L5.8839 18.4383V18.5237C5.2622 24.1784 5.08134 28.0402 5.39785 28.8569C5.68044 29.5883 6.8108 31.1564 7.74901 32.4057L6.38974 45.0555L7.74336 46.0316L8.75786 46.763L15.4327 51.598C15.7685 51.8402 16.1712 51.9704 16.5842 51.9704C16.9973 51.9704 17.4 51.8402 17.7358 51.598L25.9818 45.6559L26.8042 45.0612L25.4449 32.4C26.3803 31.1564 27.4909 29.6082 27.7706 28.8797ZM24.4445 7.82046L24.6593 6.31216C24.667 6.26426 24.6896 6.22004 24.7237 6.18581C24.7579 6.15157 24.8019 6.12906 24.8495 6.12149C24.8971 6.11392 24.9459 6.12168 24.9889 6.14365C25.0318 6.16562 25.0668 6.20069 25.0888 6.24386C26.1825 8.54046 27.2365 11.0562 27.3496 12.2059C27.352 12.2397 27.3472 12.2737 27.3354 12.3055L26.807 13.7284C26.7925 13.7685 26.7671 13.8037 26.7337 13.8299C26.7003 13.8562 26.6603 13.8724 26.6182 13.8769C26.5761 13.8813 26.5335 13.8738 26.4955 13.8551C26.4574 13.8364 26.4253 13.8073 26.4029 13.7711C25.0888 11.688 24.5745 8.72259 24.4502 7.87737C24.4459 7.85775 24.4441 7.83769 24.4445 7.81761V7.82046ZM19.1996 22.6445C19.8044 22.0411 20.8952 21.2016 22.2657 21.2016C24.0913 21.2016 23.04 22.6075 22.684 23.0286C22.6574 23.0599 22.6245 23.0849 22.5874 23.1021C22.5504 23.1193 22.51 23.1283 22.4692 23.1283H19.3974C19.3421 23.1275 19.2883 23.1103 19.2425 23.079C19.1968 23.0477 19.1612 23.0035 19.1401 22.952C19.119 22.9005 19.1135 22.8439 19.124 22.7892C19.1346 22.7346 19.1609 22.6842 19.1996 22.6445ZM20.7708 25.2569C20.8172 25.3744 20.8942 25.4771 20.9936 25.5543C21.0931 25.6314 21.2114 25.6801 21.336 25.6952C21.5127 25.7202 21.6922 25.6773 21.8389 25.575C21.9855 25.4727 22.0885 25.3185 22.1273 25.1431C22.0246 25.1415 21.9258 25.1031 21.8486 25.0347C21.7715 24.9664 21.721 24.8727 21.7062 24.7703C21.6969 24.7036 21.7033 24.6356 21.7249 24.5718C21.7465 24.508 21.7827 24.4503 21.8306 24.4032L21.8108 24.3861H23.0457V24.4487C23.0527 24.6661 23.0159 24.8826 22.9377 25.0853C22.8594 25.288 22.7413 25.4727 22.5904 25.6283C22.4395 25.7838 22.2589 25.9071 22.0595 25.9906C21.8601 26.0741 21.646 26.1162 21.4301 26.1142C21.2142 26.1123 21.0008 26.0665 20.8029 25.9794C20.605 25.8924 20.4266 25.7659 20.2785 25.6077C20.1303 25.4495 20.0155 25.2627 19.9408 25.0587C19.8661 24.8546 19.8332 24.6375 19.8439 24.4203V24.3861H21.0619C20.9184 24.4727 20.8099 24.6076 20.7556 24.767C20.7014 24.9263 20.7047 25.0999 20.7652 25.2569H20.7708ZM10.9169 21.2016C12.2931 21.2016 13.3782 22.0411 13.983 22.6445C14.022 22.6846 14.0484 22.7355 14.0588 22.7907C14.0692 22.8459 14.0632 22.9029 14.0414 22.9547C14.0196 23.0064 13.9832 23.0505 13.9366 23.0814C13.89 23.1123 13.8353 23.1286 13.7795 23.1283H10.7219C10.6811 23.1283 10.6407 23.1193 10.6036 23.1021C10.5666 23.0849 10.5336 23.0599 10.5071 23.0286C10.1369 22.6075 9.08567 21.2016 10.9112 21.2016H10.9169ZM11.482 24.7703C11.4649 24.8706 11.4134 24.9617 11.3364 25.0277C11.2595 25.0937 11.162 25.1305 11.061 25.1317C11.0954 25.3106 11.1967 25.4693 11.3439 25.5752C11.4911 25.6811 11.6731 25.7261 11.8522 25.7009C11.9675 25.6854 12.0769 25.6408 12.1703 25.5711C12.2638 25.5014 12.3381 25.409 12.3863 25.3025C12.4591 25.1445 12.4722 24.9652 12.4233 24.7982C12.3745 24.6311 12.2669 24.4877 12.1207 24.3946H13.3048C13.3135 24.3953 13.3218 24.3991 13.328 24.4054C13.3342 24.4116 13.338 24.42 13.3387 24.4288C13.3494 24.646 13.3165 24.8632 13.2418 25.0672C13.1672 25.2713 13.0523 25.458 12.9041 25.6163C12.756 25.7745 12.5776 25.9009 12.3797 25.988C12.1818 26.075 11.9685 26.1209 11.7525 26.1228C11.5366 26.1247 11.3225 26.0827 11.1231 25.9991C10.9237 25.9156 10.7431 25.7924 10.5922 25.6368C10.4413 25.4812 10.3232 25.2966 10.2449 25.0939C10.1667 24.8911 10.1299 24.6746 10.1369 24.4573V24.3946H11.3718L11.3521 24.4117C11.3997 24.4574 11.4362 24.5135 11.4588 24.5757C11.4813 24.6379 11.4893 24.7045 11.482 24.7703ZM6.81363 13.7768C6.79076 13.8128 6.75839 13.8417 6.72015 13.8603C6.68191 13.8788 6.63931 13.8863 6.59709 13.8819C6.55487 13.8774 6.51471 13.8613 6.48109 13.8352C6.44747 13.8091 6.42171 13.7741 6.4067 13.7341L5.88108 12.3112C5.86798 12.2798 5.86312 12.2455 5.86695 12.2116C5.97433 11.0733 7.0284 8.54615 8.12768 6.24955C8.14899 6.20588 8.18364 6.17023 8.22654 6.14784C8.26945 6.12544 8.31834 6.11748 8.36607 6.12512C8.41379 6.13275 8.45783 6.15559 8.49172 6.19028C8.52561 6.22496 8.54758 6.26968 8.5544 6.31786L8.76916 7.82615C8.77197 7.84788 8.77197 7.86988 8.76916 7.89161C8.63917 8.72829 8.12485 11.6937 6.81363 13.7768ZM10.8067 39.2756C9.90801 36.7968 9.89671 33.3278 9.89671 33.1798V32.9436L9.74976 32.7586C9.36261 32.2776 8.90198 31.6828 8.43005 31.0511C8.402 31.0144 8.38324 30.9714 8.3754 30.9258C8.36757 30.8802 8.37089 30.8334 8.38509 30.7894C8.39929 30.7454 8.42393 30.7055 8.45687 30.6733C8.48982 30.641 8.53009 30.6173 8.57417 30.6043L10.996 29.8928C11.0474 29.8776 11.0935 29.848 11.1288 29.8074L13.4404 27.1523C13.4775 27.1097 13.5264 27.0793 13.5808 27.0649C13.6352 27.0505 13.6926 27.0527 13.7457 27.0714C13.7988 27.09 13.8452 27.1242 13.8789 27.1695C13.9126 27.2149 13.9321 27.2693 13.9349 27.3259L14.339 34.9356C14.3413 34.9975 14.3234 35.0585 14.2882 35.1092C14.1271 35.3483 13.6665 36.0711 13.6665 36.5151C13.6665 37.0843 14.5001 37.8299 15.3225 38.4247C15.3316 38.4004 15.342 38.3767 15.3536 38.3535C15.6361 37.8356 16.0176 37.7416 16.2013 38.1401C16.2641 38.4344 16.286 38.7361 16.2663 39.0365H16.2805V39.7366C16.2806 39.7799 16.271 39.8228 16.2522 39.8618C16.1024 40.1663 15.3762 41.4697 13.8304 41.4697C13.155 41.4896 11.5329 41.2733 10.8067 39.2756ZM17.6962 42.1641C17.7197 42.1636 17.7428 42.1706 17.7622 42.184C17.7816 42.1974 17.7964 42.2165 17.8044 42.2387C17.8125 42.261 17.8135 42.2852 17.8073 42.308C17.8011 42.3309 17.7879 42.3512 17.7697 42.3661C17.4299 42.6283 17.0137 42.7704 16.5857 42.7704C16.1576 42.7704 15.7414 42.6283 15.4016 42.3661C15.3836 42.3513 15.3705 42.3313 15.3642 42.3087C15.3579 42.2862 15.3587 42.2622 15.3664 42.2401C15.3741 42.218 15.3884 42.1988 15.4074 42.1852C15.4263 42.1716 15.449 42.1642 15.4722 42.1641H17.6962ZM19.762 42.9979C19.4531 43.5759 18.9946 44.0588 18.4351 44.3955C17.8756 44.7321 17.236 44.9098 16.5842 44.9098C15.9325 44.9098 15.2929 44.7321 14.7334 44.3955C14.1739 44.0588 13.7154 43.5759 13.4065 42.9979C13.3821 42.9532 13.37 42.9028 13.3716 42.8518C13.3732 42.8008 13.3884 42.7512 13.4155 42.7082C13.4427 42.6651 13.4808 42.6302 13.526 42.6071C13.5711 42.584 13.6216 42.5735 13.6721 42.5767H13.8417C14.0205 42.578 14.1988 42.558 14.373 42.517C14.4278 42.5035 14.4853 42.5069 14.5382 42.5267C14.5911 42.5465 14.6369 42.5817 14.6697 42.6279C14.8865 42.9374 15.174 43.1899 15.5079 43.3642C15.8418 43.5385 16.2124 43.6294 16.5885 43.6294C16.9646 43.6294 17.3352 43.5385 17.6691 43.3642C18.003 43.1899 18.2904 42.9374 18.5073 42.6279C18.5401 42.5817 18.5859 42.5465 18.6388 42.5267C18.6916 42.5069 18.7492 42.5035 18.804 42.517C18.989 42.5619 19.1788 42.5839 19.3692 42.5824H19.502C19.5515 42.5803 19.6007 42.5913 19.6447 42.6144C19.6886 42.6375 19.7257 42.6718 19.7524 42.7139C19.779 42.756 19.7942 42.8043 19.7963 42.8542C19.7985 42.9041 19.7877 42.9536 19.7648 42.9979H19.762ZM24.778 31.0625C24.3089 31.6829 23.8454 32.2776 23.4583 32.77L23.3113 32.9549V33.1911C23.3113 33.3391 23.3113 36.8082 22.4014 39.2869C21.678 41.279 20.0531 41.501 19.389 41.501C17.8432 41.501 17.1282 40.1976 16.97 39.8931C16.9502 39.8543 16.9396 39.8115 16.9389 39.7679V39.0678H16.953C16.9334 38.7674 16.9553 38.4657 17.018 38.1714C17.1904 37.7729 17.5662 37.8669 17.8658 38.3848C17.8658 38.4076 17.8856 38.4332 17.8969 38.456C18.7192 37.8612 19.5529 37.1156 19.5529 36.5464C19.5529 36.1024 19.0894 35.3796 18.9283 35.1405C18.8941 35.0894 18.8772 35.0285 18.8803 34.9669L19.2816 27.3572C19.2844 27.3006 19.3039 27.2462 19.3376 27.2008C19.3713 27.1555 19.4177 27.1213 19.4708 27.1027C19.5239 27.084 19.5813 27.0818 19.6357 27.0962C19.6901 27.1106 19.739 27.141 19.7761 27.1836L22.0877 29.8387C22.1238 29.8798 22.1709 29.9094 22.2234 29.9241L24.6423 30.6356C24.6826 30.6506 24.7189 30.6746 24.7485 30.7058C24.7782 30.737 24.8004 30.7746 24.8134 30.8157C24.8265 30.8569 24.8301 30.9005 24.824 30.9432C24.8178 30.986 24.8021 31.0267 24.778 31.0625Z" fill="#030328"/>
</g>
<path d="M90.4444 27.882H90.0552V34.6087H85.2251V17.8607L90.0552 10.3103V25.9372C91.0167 24.7589 94.2559 20.2859 94.2559 20.2859H100.219L94.5649 26.269L100.414 34.6201H94.3131L90.4444 27.882ZM76.9841 26.7838L78.9642 20.3317H83.7486L78.1401 34.5629C76.469 38.8415 74.0768 41.7358 70.5057 41.7358C69.1322 41.7358 67.9762 41.3811 67.3695 41.0379L69.2924 38.0636C69.5786 38.0979 69.8762 38.1093 70.1738 38.1093C71.822 38.1093 73.0581 36.5077 73.8593 34.6087L67.9762 20.3317H73.3901L75.5075 26.7037C75.9196 27.9164 76.2172 30.2272 76.2172 30.2272C76.2172 30.2272 76.5949 27.9964 76.9841 26.7838ZM62.3906 26.452C62.3906 24.5873 61.5665 23.7065 59.9984 23.7065C59.2315 23.7065 58.4303 23.9238 57.8809 24.2556V34.6087H53.0507V20.469L57.7779 20.08L57.6634 22.3909H57.8237C58.8424 21.0181 60.5707 19.977 62.6309 19.977C65.1032 19.977 67.2436 21.51 67.2436 25.1364V34.6087H62.3906V26.452ZM39.2241 33.8766L39.6591 30.5819C41.1699 31.3254 42.8754 31.6801 44.3061 31.6801C45.3477 31.6801 46.0344 31.3254 46.0344 30.6963C46.0344 28.8887 39.5217 29.3235 39.5217 24.5988C39.5217 21.5786 42.2916 19.9885 45.7597 19.9885C47.488 19.9885 49.2736 20.4575 50.4296 20.8694L49.9604 24.1069C48.7471 23.6378 47.0989 23.2031 45.7254 23.2031C44.8784 23.2031 44.1916 23.5005 44.1916 24.0497C44.1916 25.8343 50.8417 25.4796 50.8417 30.0899C50.8417 33.1558 48.1176 34.9176 44.3862 34.9176C42.326 34.9176 40.6549 34.5629 39.2241 33.8766Z" fill="#030328"/>
</g>
<defs>
<clipPath id="clip0_9532_31065">
<rect width="100.414" height="52" fill="white"/>
</clipPath>
<clipPath id="clip1_9532_31065">
<rect width="32.7241" height="51.9736" fill="white" transform="translate(0.224121)"/>
</clipPath>
</defs>
</svg>
